X:1
T:Götterdämmerung Act 2 Scene 1 (Vocal Score)
T:Götterdämmerung Act 2 Scene 1 (Piano Acc.)
T:Prelude, "Schläfst du Hagen, mein Sohn?"
T:WWV 86D, Richard Wagner
T:Made with Musescore 3 by LeftRight February 2019 . 
C:WWV 86D, Richard Wagner
%%score 1 2 { ( 3 5 9 ) | ( 4 6 7 8 ) }
L:1/8
Q:1/4=40
M:4/4
K:Db
V:1 bass nm="Alberich" snm="A."
V:2 bass nm="Hagen" snm="H."
V:3 treble nm="Piano" snm="Pno."
V:5 treble 
V:9 treble 
V:4 bass 
V:6 bass 
V:7 bass 
V:8 bass 
V:1
"^Sehr mässig bewegt" z8 | z8 | z8 | z8 | z8 | z8 | z8 | z8 | z8 | z8 | z8 | z8 | z8 | z8 | z8 | %15
 z8 | z8 | z8 | z8 | z8 | z8 | z8 | z8 | z8 | z8 | z8 | z8 | z8 | z8 ||[K:Bb] z8 | z8 | z8 | z8 | %33
[Q:1/4=35]"^noch langsamer" z8 | z8 | z8 | z8 | z8 |[Q:1/4=80]"^Lebhaft" z8 | z8 || z8 | z8 | %42
!p! D,2 =B, z F,2 =E, D, | ^G,4 z4 | z =G, B,4 z G, | D3/2 B,/ G,2 z2 =E,2 | %46
[M:4/4] _D,3 D, C,3 B,, ||[Q:1/4=40]"^Erstes Zeitmass" _G,2- G, z z4 | z8 | z8 | z8 | z8 | z8 | %53
 z8 | z8 ||[Q:1/4=74]"^Wieder lebhaft" z2 z A, A,2 A, F, | (3:2:2D2 F, G,3/2 ^G,/ G,2 D, z | %57
 z D, F, A, D2 F, A,/ A,/ |[Q:1/4=68] C3 =B, A,2 G, F, | %59
[Q:1/4=64] =E,4 z4[Q:1/4=62][Q:1/4=52][Q:1/4=44] | z8 ||[K:Db][Q:1/4=40]"^Wieder langsam" z8 | z8 | %63
 z8 | z8 | z8 | z8 | z8 | z8 | z8 | z8 | z8 | z8 | z8 ||[Q:1/4=68]"^Wieder lebhaft" z4 _F,2 E, D, | %75
 =G,2- G, z D _F, z F, | _F, E, z =E, ^F,2 =D, =B,, || %77
[K:Bb] A,3/2 ^G,/ (3=F, =E, D, C3/2 =B,/ (3A, =G, F, | =E,2 z2 z F,2 F, | =E, =B, z2 z F,2 ^C, | %80
 ^G, z (3F, =E, D, (3D C _B, (3_A, =G, F, | =E,2- E, z z !>!_E,3 | D,2 D, D, _D,2 F, _A, || %83
[M:4/4][Q:1/4=96] =B,,2- B,, z3/2 z3/2 _A, A, F, | (3=B, _A, F, D,2 z3 C2- | %85
 C D, z3/2 F, _A,2- (3A, G, F, | (3D ^F, z3/2 D, E,2 E,2 E, | (=E,>_D) D z3/2 z3/2 _E, E, E, | %88
 (=E,>_D) D z3/2 z3 C C | C2 C,3/2 E,/ G,3/2 C/ (3E D C | %90
[M:4/4][Q:1/4=68] F2 z =B,/ B,/ B,3/2 B,/ B,3/2 D/ | D F, z _A, A,3 A, | _A,4 A,2 z A, | %93
 E _A, z2 z C C2 | C3/2 ^F,/ F, z D3/2 C/ (3:2:4B, _A, z/ ^F,/ | ^F, C, z2 z4 | z8 | %97
 D,2 =B, z F, =E, z D, ||[M:4/4][Q:1/4=48]"^Langsam" ^G,2- G, z z4 | z8 | z8 | z8 | z8 | z8 | z8 || %105
[Q:1/4=94]"^Lebhaft" _C2 z F, =D2 z2 | z _A, _G, _C/ E/ F, z G, G,/ G,/ | F, C _D _G, F,2 z2 | %108
 =G,2 _A, A,/ A,/ G,2 z A, | =D2 z2 D,3 D, | G,3 G, =B,2- (3B, G, G, |!mp! =E2 G,2 z2 G,2 | %112
 _B, B, z3/2!p! _D/ C z/ B,/ (3_G, F, =E, | _E,2 z E,!mp! C2 E, _G, | F,2 B, _G, C z _D D/ D/ || %115
!p! E2 _A, A,/ _C/ C E, z2 | _D,2 D, z/ D,/ _A,3/2 D,/ D,2 | E,2- E,/ E,/ _G, _D,2 z2 | %118
 (3z _G, G, G,4 F,3/2 E,/ | E, _D, z D, D,2 E,3/2 D,/ | _G, z (3z G, G, G, G,/ G,/ _A,3/2 A,/ | %121
 _C z/ _A,/ A,2 A, A,/ A,/ (3_G, F, E, | B,2 z2 =A, F, z F, | F,2 (3F, F, F, _G,2 (3=G,=A, B, | %124
 B,6 (3A,2 z/ G,/ |[M:4/4][Q:1/4=68] ^F, z C C/ C/ _C E, E, F,/ _G,/ | %126
[Q:1/4=60]"^Mässiger werdend" _G, _C, z2 z4 | z4 ^C, =B, (3:2:4G, =E, z/ C,/ | _B,2 z2 z4 | z8 | %130
 z8 |[M:4/4] z8 ||[Q:1/4=108]"^Wieder schnell, wie zuvor." z8 | z G, G, G, =E z z ^F, | %134
 _E z z2 z2 ^F, G,/ G,/ | C E, z2 z4 | z2 D,2 D,3 D, | G,2 G,3/2 A,/ B,2 D, D, | %138
[Q:1/4=72] D,2- D, z F,2 F, F, | =E,2 z E, F,3 ^C ||[K:D][Q:1/4=80] D A, z2 z2 A,,3/2 A,,/ | %141
[M:12/8][Q:1/2=57] A,,2 D, D,2 E, F, E, D, A, z A, ||[M:4/4] C3/2 A,/ (3A, F, E, ^D,2 z3/2 F, | %143
 E2 A, z3/2 (3:2:2z3/2 A,2- (3A, A, C | (3:2:2^D,2 z3/2 (3z3/2 E, F, (3:2:2^G,2 F, (3E, D, C, || %145
[M:4/4][Q:1/4=108] ^B,,2 z2 z4 | z2 A, ^G,/ F,/ ^D F, A, =F,/ =D,/ | B,2 z2 z2 z ^G, | %148
[Q:1/4=84] A,2 F,3/2 E,/ ^D,2- (3D, =C B, || %149
[K:Bb][M:4/4] A, z (3A, _G, E, E3/2 C/ (3:2:4B, z _A,/ G,/ |[M:4/4] _G, F, z2{/_A,} G, z z2 | %151
 F,2 (3z _C _A, F,2 z F, | _G,2 z F,/ F,/ =C2 z2 || %153
[M:4/4][Q:1/4=96] z =G,/ G,/ B,3/2 G,/ D2 B, G, |[Q:1/4=108] =E, z z2 z4 | %155
 z _A, _G,3/2 E/ E F, z2 | z F, B, _C _A,2 =D, E, | _A,2!mp! B, _C A, C z A, | %158
!mf! E7/2 _C/ C2 B, B, | =A,2 E z/ E/ _G,2 F, E, | %160
[Q:1/4=80]!f! _D2 z2[Q:1/4=76] =E3!mp! C,[Q:1/4=58] | C,2 z2 =E,2 F,/ z/ _A,/ z/ || %162
[K:Db][Q:1/4=40]"^Wieder langsam" C2 z2 z4 | z8 ||[M:12/8][Q:1/2=40] z12 | z12 || %166
[M:4/4][Q:1/4=40] z2!p! (3=B,3/2 =G,/ =E, z F,- (3:2:4F, =D, z/ _B,/ || %167
[M:4/4][Q:1/2=40] =B, z3/2 z3 z6 | z12 | z12 | z12 | z12 | z12 | z3/2!p! E, G,2 G, E, z3 | %174
 z3/2 E, G,2 z3 G,3/2 D,/ | B, G, z3 z6 | z3/2!pp! F, F,2[Q:1/4=72] z6 | z3/2 G, F,2 z6 | %178
[M:4/4][Q:1/4=40] z8 | z8 | z2!ppp! F,2 z4 | z8 | z8[Q:1/4=54] | z8 | z8 ||[M:3/4] z6[Q:1/4=30] | %186
 z6 |] %187
V:2
 z8 | z8 | z8 | z8 | z8 | z8 | z8 | z8 | z8 | z8 | z8 | z8 | z8 | z8 | z8 | z8 | z8 | z8 | z8 | %19
 z8 | z8 | z8 | z8 | z8 | z8 | z8 | z8 | z8 | z8 ||[K:Bb] z8 | z8 | z8 | z8 | z8 | z8 | z8 | z8 | %37
 z8 | z8 | z8 || z8 | z8 | z8 | z8 | z8 | z8 |[M:4/4] z8 || z8 | z8 | z2!mp! E,2 E,3/2 E,/ E, z | %50
 z E,2 E, E,2 A,, z | z2 C,2 C, C, _D, E, | F,4- F, z z F, | B,2 B,,2 z4 | z8 || z8 | z8 | z8 | %58
 z8 | z8 | z8 ||[K:Db] z4 G,4 | F,3 E, _C,3 B,, | A,,4 z2 G,2 | A,,4- A,, _C, __E, G, | %65
 _C2 D,2 z2 A,2 | F,3 E, D,2 D, _C, |!pp! B,,4- B,, z z2 | z2!pp! G,4 (B,,2 |!ppp! B,,2) z2 z4 | %70
 z2!pp! G,4 z B,, |!p! =A,,4!mp! _A,,2!mf! A,3/2 B,/ |!f! _C2 F,,2 z4 | z2!mp! A,4 G, _F, || %74
 E,2- E, z z4 | z8 | z8 ||[K:Bb] z8 | z8 | z8 | z8 | z8 | z8 ||[M:12/8] z12 | z12 | z12 | z12 | %87
 z12 | z12 | z12 |[M:4/4] z8 | z8 | z8 | z8 | z8 | z8 | z8 | z8 ||[M:4/4] z8 | z8 | %100
 z2 z!p! E, E,2 E, E, | _A,4 z4 | z8 | z4 E,4 | _C,3 _G, G,2 z2 || z8 | z8 | z8 | z8 | z8 | z8 | %111
 z8 | z8 | z8 | z8 || z8 | z8 | z8 | z8 | z8 | z8 | z8 | z8 | z8 | z8 |[M:4/4] z8 | z8 | z8 | z8 | %129
 z2 z G, G,2 G, G, | G,4 C,2 z2 |[M:4/4] z2 E,4 E, E, || E,4 z4 | z8 | z8 | z8 | z8 | z8 | z8 | %139
 z8 ||[K:D] z8 |[M:12/8] z12 ||[M:12/8] z12 | z12 | z12 ||[M:4/4] z8 | z8 | z8 | z8 ||[K:Bb] z8 | %150
[M:4/4] z8 | z8 | z8 ||[M:4/4] z8 | z8 | z8 | z8 | z8 | z8 | z8 | z8 | z8 ||[K:Db] z8 | %163
 z4 z2!p! A,2 ||[M:4/4] A,2 A, A, A,2 _C, z3/2 | z3 B,,2- B,, B,, B,,2 ||[M:4/4] =B,,2- B,, z z4 || %167
[M:12/8] z12 |[M:4/4] z6 z3 E,2 | =A,4 A,2 C,2 | z12 | z3 E,4 E, E, | G,4 _C,2 z3 | z12 | z12 | %175
 z12 | z12 | z12 |[M:4/4] z8 | z8 | z8 | z8 | z8 | z8 | z8 ||[M:3/4] z6 | z6 |] %187
V:3
!f! [F,B,DF]/[F,B,DF][F,B,DF][F,B,DF]/-(3[F,B,DF]/[F,B,DF]/[F,B,DF]/- [F,B,DF]/[F,B,DF]/-(3[F,B,DF]/[F,B,DF]/[F,B,DF]/- [F,B,DF]/[F,B,DF][F,B,DF]/- | %1
"_dim." [F,B,DF]/[F,B,DF][F,B,DF][F,B,DF][F,B,DF]/- [F,B,DF]/[F,B,DF][F,B,DF][F,B,DF][F,B,DF]/- | %2
 [F,B,DF]/[F,B,DF]/-(3[F,B,DF]/[F,B,DF]/[F,B,DF]/ z/ [F,B,DF]/-(3[F,B,DF]/[F,B,DF]/[F,B,DF]/ z [F,B,DF]-[F,B,DF]/ z/ [F,B,DF] | %3
!p! !>![fbd'f']8- | [fbd'f']8- | [fbd'f']6- [fbd'f'] z | %6
!f! [G,__B,DG]/[G,B,DG]/-(3[G,B,DG]/[G,B,DG]/[G,B,DG]/ ([G,B,DE]/4G/4 __B/4d/4e/4g/4 .__b/4d'/4-) (3[gbd'g'][gbd'g'][gbd'g'] (3[gbd'g']"_dim."[gbd'g'][gbd'g'] | %7
 z [G__Bdg] z [GBdg] z [GBdg] z [GBdg] |!p!!<(! !///-![=A,CE]4 G4!<)! | %9
!>(! !///-![E,=A,C]4 [EF]4!>)! |!p! [E,=A,CEF][F,F] z2 z4 | %11
!>(! (!>![=d_a_c'g']6!>)!!p! [e=a=c'f']2) | %12
[I:staff +1] [F,F]/!p![I:staff -1][F,B,DF][F,B,DF]!<(![F,B,DF]/-(3[F,B,DF]/[F,B,DF]/[F,B,DF]/-!<)!!mf! [F,B,DF]/[F,B,DF]/-(3[F,B,DF]/[F,B,DF]/[F,B,DF]/-"_dim." [F,B,DF]/[F,B,DF][F,B,DF]/- | %13
 [F,B,DF]/[F,B,DF][F,B,DF][F,B,DF]/-(3[F,B,DF]/[F,B,DF]/[F,B,DF]/- [F,B,DF]/[F,B,DF][F,B,DF][G,B,DG]/-(3[G,B,DG]/[G,B,DG]/([G,B,DG]/ | %14
!p! (3[G,CEA]) (.[cega].[cega] .[cega]/)!<(! [CEGA]/-(3[CEGA]/[CEGA]/([CEGA]/ [D_FG__B]/)[DFGB]/-(3[DFGB]/[DFGB]/[DFGB]/- [DFGB]/[DFGB]([DFGB]/!<)! | %15
!>(! (3.[CEGA]) (.[cega].[cega] .[cega]/) [CEGA]/-(3[CEGA]/[CEGA]/([CEGA]/ [D_FG__B]/)[DFGB]/-(3[DFGB]/[DFGB]/[DFGB]/-!>)! [DFGB]/[DFGB]([DFGB]/ | %16
!p! (3[CEG_B])!<(! [cegb][cegb] (3[cegb][cegb][cegb] [cegb]/!<)![cegb]/-!mf!(3[cegb]/[cegb]/[cegb]/-"_dim." [cegb]/[cegb][cegb]/- | %17
 [cegb]/ [CEGB][CEGB][CEGB]/-(3[CEGB]/[CEGB]/[CEGB]/-!p! [CEGB]/[CEGB][CEGB]!<(![_CEG_c]/-(3[CEGc]/[CEGc]/[CEGc]/!<)! | %18
!p! (3[B,=E=G=c] (.[=e=gbc'].[egbc'] .[egbc']/)!<(! [EGBc]/-(3[EGBc]/[EGBc]/([EG-B-c]/ [FGBd]/)[FGBd]/-!<)!!mp!(3[FGBd]/[FGBd]/[FGBd]/-!>(! [FGBd]/[FGBd][FG-B-d]/!>)! | %19
!p!!<(! (3[=E=GBc] (.[=e=gbc'].[egbc'] .[egbc']/) [EGBc]/-(3[EGBc]/[EGBc]/([EG-B-c]/ [FGBd]/)[FGBd]/-(3[FGBd]/[FGBd]/[FGBd]/-!<)!!f! [FGBd]/[FGBd]([FGBd]/ | %20
!p! [_FABd]/)[FABd][FABd][FGBd]/-"_cresc."(3[FGBd]/[FGBd]/[FGBd]/- [FGBd]/[FGBd][FGBd][FGB=d]/-(3[FGBd]/[FGBd]/([FGBd]/ | %21
 [=FA_ce]/)[FAce][FAce][FAce]/-(3[FAce]/[FAce]/[FAce]/- [FAce]/[FAce][FAce][_FAc_f]/-(3[FAcf]/[FAcf]/([FAcf]/ | %22
!f! [=FA_c=d=f]/)[FAcdf][FAcdf][FAcdf]/-(3[FAcdf]/[FAcdf]/[FAcdf]/-"_dim." [FAcdf]/[FAcdf]/-(3[FAcdf]/[FAcdf]/[FAcdf]/- [FAcdf]/[FAcdf]/-(3[FAcdf]/[FAcdf]/[FAcdf]/- | %23
!p! z2!>(! ([_c=df__b]4!>)! [=ceg_a]2) | %24
!f! [=GB_d=e=g]/[GBdeg][GBdeg][GBdeg]/-(3[GBdeg]/[GBdeg]/[GBdeg]/- [GBdeg]/[GBdeg]/-"_dim."(3[GBdeg]/[GBdeg]/[GBdeg]/- [GBdeg]/[GBdeg]/-(3[GBdeg]/[GBdeg]/[GBdeg]/- | %25
!p! z2!<(! ([d=e=g_c']4!<)! [=dfab]2) | %26
!f! [Begb]/[Begb][Begb][Begb]/-(3[Begb]/[Begb]/[Begb]/!f! [_ceg_c']/[cegc']/-(3[cegc']/[cegc']/[c-eg-c'-]/ [c__egc']/[cegc']/-(3[cegc']/[cegc']/[cegc']/ | %27
 !////-![d_fa_c']"_dim." _c !////-![dfa] c !////-![Acdf] _F !////-![Acd] F | %28
 !////-![_FA_c] D !////-![FA] _C !////-![DF] A, z3/2 F/ || %29
[K:Bb]!p!!<(!({/=E,=B,)^C} (=E4!<)! =B4) |!>(! (=B4!>)! _C4) |!p!!<(! (D4 F3!<)! A) | %32
!>(! (A4!>)! =B,4) | (3(._B,2 .C2 .D2 (3.=E2 .F2 .G2) |!p! z8 | (3(.=D2 .=E2 .^F2 (3.G2 .A2 .B2) | %36
 z8 |!pp! (3(.F2 .G2 .A2 (3.B2 .c2 ._d2) |!ff! [_d=e_c']8- | [dec']8 || %40
[M:12/8]!pp! .[^gd'f'] .[=bd']2 .[gb]2 [fg]- [fg].[df].[=Bd] .[^GB].[Bd].[df] | %41
 .[=Bfa] .[df]2 .[Bd]2!p! [^GB]- [GB].[FG].[DF] .[=B,D].[DF].[FG] | %42
!p! [^G=B][K:bass]!>(! [F,^G,=B,D]2 [F,G,B,D]2 [F,G,B,D]- [F,G,B,D][F,G,B,D][F,G,B,D]!>)! [F,G,B,D]2 z2/3 | %43
 z2/3!>(! [F,=B,D]2 [F,B,D]2 [F,B,D]- [F,B,D][F,^G,B,D][F,G,B,D]-!>)! [F,G,B,D]2 z2/3 | %44
 B,4 x16/3 x10/3 | %45
!>(! ([=E,B,D]2 [E,B,D]2 [E,B,D]- [E,B,D][E,B,D][E,B,D] [E,B,D][E,B,D][E,B,D]!>)! B,/4A,/4G,/4F,/4 | %46
[M:4/4]!p! !///-!_D4) B,4 || %47
!pp! [_G,__B,_D_G]/[G,B,DG][G,B,DG][G,B,DG]/-(3[G,B,DG]/[G,B,DG]/[G,B,DG]/- [G,B,DG]/[G,B,DG][G,B,DG][G,B,DG][G,B,DG]/- | %48
 [G,B,DG]/[_G,__B,_D_G][G,B,DG][G,B,DG]/-(3[G,B,DG]/[G,B,DG]/[G,B,DG]/- [G,B,DG]/[G,B,DG][G,B,DG][G,B,DG]([G,B,DG]/ | %49
!p! !///-![CE_G]4) =A,4 | !///-![CE_G]4 A,4- |!pp! [A,CEF]8 | z8 | z4[K:treble] ([_D=E_c]4 | %54
!pp!!<(! !////-!_c'2 _d2 c' z B2!<)! || %55
!pp! [=A,DF=A]) F/D/ F/D/G/=E/ [FA]>[DF]!<(! (3[=B,=D][A,C][^G,B,]!<)! | %56
[K:bass] !///-![F,A,]2 D,2!<(! !///-![F,^G,]3/2 D,3/2 z!<)! | %57
[K:treble]!p! !>![FA] [DF]2 ([=B,D] (3[^G,B,][A,C])"_cresc.".[B,D] (3.[DF].[B,D].[FA] | %58
!mf!!>(! ([Ac]3 [G=B] [FA]2 [=EG]!>)![DF]) |!p! ([D=E]8 |!>(! F4- F3!>)! B) || %61
[K:Db]!p! [B,EGB]/[B,EGB][B,EGB][B,EGB]/-(3[B,EGB]/[B,EGB]/[B,EGB]/- [B,EGB]/[B,EGB]/-(3[B,EGB]/[B,EGB]/[B,EGB]/- [B,EGB]/[B,EGB][B,EGB]/- | %62
 [B,EGB]/[B,EGB][B,EGB][B,EGB]/-(3[B,EGB]/[B,EGB]/[B,EGB]/- [B,EGB]/[B,EGB]/-(3[B,EGB]/[B,EGB]/([B,E-G-B]/ [_CEG_c]/)[CEGc]([CEGc]/ | %63
 [_CFAd]/)[CFAd][CFAd][CFAd]/-(3[CFAd]/[CFAd]/[CFAd]/!p!!>(! (!>![_G__B__e]4!>)! | %64
 [_CFAd]/)[CFAd][CFAd][CFAd]/-(3[CFAd]/[CFAd]/[CFAd]/!p!!<(! (!>![_G__B__e]4!<)! | %65
!p! [FA_c_e]/)[FAce]!<(![FAce][FAce]/-(3[FAce]/[FAce]/[FAce]/- [FAce]/!<)![FAce]/-(3[FAce]/[FAce]/[FAce]/- [FAce]/[FAce]!p![FAce]/- | %66
 [FA_ce]/[FAce][FAce][FAce]/-(3[FAce]/[FAce]/[FAce]/- [FAce]/[FAce]/-(3[FAce]/[FAce]/([FA-c-e]/ [_FAc_f]/)[FAcf][FAcf]/ | %67
!pp! (3(.[EA=c=f].[EAcf].[EAcf] (3.[EA=c=f].[EAcf].[EAcf] [EAcf]4) | %68
 z4!pp! (3(.[A_c_g].[Acg].[Acg] .[Acg]) z | %69
!ppp! (3(.[EA=cf].[EAcf].[EAcf] (3.[EAcf].[EAcf].[EAcf] [EAcf]4) | %70
 ((!>![A,_C_G-]4!pp! (3[A,CG]!<(!.[A,CG].[A,CG] (3.[A,CG].[A,CG].[A,CG])!<)! | %71
!p!"_cresc." !///-![=C=G]2 =G,2 !///-![_CA]2 A,2 |!f! (!///-![EA_c]2)"_dim." _C2 [=DAc]2 [_DGB]2 | %73
 [_FA]6 [EG][D_F] || %74
!p! (3:2:2[=G,DE]) [G,DE]2 (3:2:2[G,DE]2 [G,DE]!pp! (3z (.[=Gd_f].[Gdf] [Gdf]) z | %75
!p! (3:2:2z [=G,DE]2!<(! (3:2:2[G,DE]2 [G,DE]!<)!!pp! (3z (.[=Gd_f].[Gdf] [Gdf]) z | %76
!p! (3:2:2z [=G,DE]2-!<(! (3[G,DE][G,DE][G,DE]!<)! (^F2 =D>).=B, || %77
[K:Bb]"_cresc." (A>^G=F).D{/A,} ([Ac]>[=G=B] (3[CA].[=B,=G]).[A,F] | %78
!p! (3:2:2z [^G,D=E]2-!<(! (3[G,DE][G,DE][G,DE]!<)!!p! (3z (.[G^cf].[Gcf] [Gcf]) z | %79
!p!!p! (3:2:2z [^G,D=E]2-!<(!!<(! (3[G,DE][G,DE][G,DE]!<)!!<)!!p! (3z ((.[G^cf].[Gcf] [Gcf])) z | %80
!p! (3:2:2z [DF]2-"_cresc." (3[DF][DF][DF] (3:2:2[DF]- [DF]2 (3:2:2[DF]2 ([DF] | %81
!p! (3:2:2[C=E]) [CE]2- (3[CE][CE]([C-E]!<(! (_E7/2) D/4E/4!<)! | %82
!p! (3:2:2[CD]) [CD]2- (3[CD][CD]([C-D]!<(! _D7/2) (C/4D/4)!<)! || %83
[M:12/8]!p! [_A,=B,] [A,B,]2-!<(! [A,B,][A,B,][A,B,]!<)!!>(! .[_Ac] ([FA]2- [FA][DF])!>)!.[CE] | %84
!p! [_A,=B,D] [A,B,]2- [A,B,][A,B,][A,B,]!<(! [_Ac] ([FA]2- [FA][DF]).[CE]!<)! | %85
 [CD]!p! [CD]2- [CD][_A,CD][A,C-D-]!<(! [F,CD][F,CD][F,CD] [F,CD][F,CD]([F,CD]!<)! | %86
!>(! [CDd]) [CD]2 [CD]2 ([C-D]!>)!!p! E/4)_F/4E/4F/4E/4F/4E/4F/4E/4F/4E/4F/4 E/4F/4E/4F/4E/4F/4E/4F/4E/4F/4 (D/4E/4) | %87
!<(! z (.[G_d_f].[Gdf] .[Gdf]) z!<)! z!p! (TE4- E3/2 (=D/4E/4) | %88
!<(! [G,_D_F]) [G,DF]2 [G,DF]2!<)! ([G,DF]!p! (TE4-) E3/2 (D/4E/4) | %89
"_cresc." [G,CEG]) [G,CEG]2 [CEGc]2 [EGce]- [EGce] [ceg]2 [egc']2 [gc'e'] | %90
[M:4/4]!f! [_A,_D=F_A]2!>(! [F,=B,=DF]4!>)![K:bass]"_dim." [F,_A,D]2- | %91
 [F,A,D]2 [F,_A,=B,]4!p! [F,A,C]2- | [F,A,C]2 [_F,_D]4- [F,D][_A,E] | %93
[M:12/8]!p!!<(! [_A,E] [A,CE]2 [A,CE]2 ([A,-C-E]!<)!!f! [A,CD])!p!!<(! [A,CD]2 [A,CD]2 [A,CD]-!<)! | %94
"_cresc." [A,CD][_A,CD][A,CD]- [A,CD][A,CD]([A,CD] .[CD]) z2/3 z2/3 z4/3 z2/3 | z8 | %96
 z2/3!>(! [F,_A,D]2- [F,A,D]!p![F,A,D][F,A,D]- [F,A,D] [F,A,D]2 [F,A,D]2 z2/3!>)! | z8 || %98
[M:4/4] z8 | %99
 z/ ([E,_A,_CE][E,A,CE][E,A,CE]/-(3[E,A,CE]/[E,A,CE]/[E,A,CE]/- [E,A,CE]/[E,A,CE][E,A,CE][E,A,CE][E,A,CE]/) | %100
 z8 | z8 | %102
 z/ ([E,_A,_CE][E,A,CE][E,A,CE]/-(3[E,A,CE]/[E,A,CE]/[E,A,CE]/- [E,A,CE]/[E,A,CE][E,A,CE][E,A,CE][E,A,CE]/) | %103
 z8 | z4!<(! z2 z!<)!!f! [_A,_C_G]- || (G4- GFB,{/_D}_C) | %106
!>(! (_A,2 T_G,3/2F,/4!>)!G,/4)!p! (F,C _DG, |!<(! F,C _D_G, F,!<)!C!f! DG,) | %108
!p! (=G,=D E_A, G,D EA,) | G,>!>(!.=B, D4!>)!!p! D2 |[K:treble] G2 G,>!<(!=B, D>G =B2!<)! | %111
 B _B3- B_AG>F |[K:bass]"_dim." =E2 _D2 C2 B,2 | %113
!p! (=A,!<(!C _D_G,!<)! (3:2:2.[F,E_G])!>(! [CE]2- (3[CE][A,C].[=G,B,]!>)! | %114
!mp!!<(! (A,C _D_G, F,!<)!C!f! DG, || %115
[M:12/8][K:treble]!>(! [_A,E_G]) ([_CE]2-!>)! [CE][A,C][F,A,] [EG]) ([CE]2- [CE][A,C][F,A,] | %116
 [E_G]) ([_CE]2- [CE][_A,C][_G,B,]!<(! [F,A,][G,B,][A,C] [CE][B,_D][A,C]!<)! | %117
!p! ([E_G]) [_CE]2-!<(! [CE][_A,C][_G,B,]!<)! [F,A,]!>(![G,B,][A,C] [B,_D]2 [G,B,])!>)! | %118
!p! ([E_G] [_CE]2- [CE][_A,C][_G,B,] [F,A,][G,B,][A,C] [B,_D]2 [G,B,]) | %119
!p! ([F,_A,][_G,B,][A,_C] [B,_D]2 [G,B,])!<(! ([F,A,][G,B,][A,C] [CE][B,D][A,C])!<)! | %120
!p! ([_G,B,]!<(![_A,_C][=A,=C] [_CE]2 [B,_D])!<)!!p! ([G,B,][_A,C][B,D]"_cresc." [E_G][DF][CE] | %121
 [_GB]) ([F_A]2- [FA][EG][_DF]) ([_CE][B,=D][CE]"_dim." [EG][DF][CE]) | %122
!p! .B,F>.D .B,!<(!.C.D .E.D.C .G!<)!.F.E x8/3 | %123
!p! B,F>D B,"_cresc."CD [_A,E][B,D][A,C] [=G,B,F][=A,CE][B,D] x8/3 | %124
 [G,B,G][A,F][B,E] [A,EA][B,G][C^F] [B,EB]A[EG]- [EG][=B,F][CE] | %125
[M:4/4][K:bass]!f!!<(! ([^F,CD]4!<)!!>(! [E,-_A,-_CE]4)!>)! | %126
!p!!>(! ([E_G]3 [_DF] [_CE]2 [B,D]!>)![_A,C] | %127
[M:12/8]!pp! [D,_A,B,])!<(! [D,A,B,]2- [D,A,B,][D,A,B,]([D,A,B,]!<)!!pp! ([^C,G,=B,]6) | %128
 [D,_A,_B,]) [D,A,B,]2 [D,A,B,]2!p! [D,A,B,]- [D,A,B,][D,A,B,][D,A,B,]- [D,A,B,][D,A,B,]([D,A,B,] | %129
 [^C,G,=B,]) [C,G,B,]2 [C,G,B,]2 [C,G,B,]- [C,G,B,][C,G,B,][C,G,B,]- [C,G,B,][C,G,B,]([C,G,B,] | %130
 [=C,_E,G,=C]) [C,E,G,C]2-!>(! [C,E,G,C][C,E,G,C][C,E,G,C]- [C,E,G,C] [C,E,G,C]2 [C,E,G,C]2!>)! [C,E,-G,-C-] | %131
[M:4/4] [E,G,C]8 || z[K:treble] (3(^F/G/!mf!A/!<(! (B2-)!<)! B!>(!AD{/=F}E)!>)! | %133
!p! C2"_cresc." (TB,3/2A,/4B,/4) A, z/ (G/4A/4!mf! B2-) | (B/-B/"_dim."A DE CB DE | %135
 CB DE CB, A,E) |!pp! (D4- DCB,>A, |!<(! G6 F2!<)! | %138
[M:12/8]!p!!<(! [^G,D=E]) [G,DE]2 [G,DE]2 ([G,DE]!<)!!p! ([=G,^CF]6) | %139
 ([^G,D=E]) [G,DE]2 [G,DE]2!<(! ([G,DE] [=G,^CF]) [G,CF]2 [G,CF]2 [G,CF])!<)! || %140
[K:D]!pp! (B2 A F2 E DA,D EDF) x/3 |[M:12/8] (B2 A F2 E DA,D EDF) || %142
[M:12/8] .[Ac]!<(! ([FA]2- [FA][^DF]!<)![CE]!>(! [^B,D][CE]).[DF] .[E^G].[FA]!>)!([Ac] | %143
!p! .[Ece]) [CAc]2- [Ac]"_cresc.".[FA].[^DF][K:bass] ([^B,^D][A,C][^G,B,] [F,A,][^D,F,]).[C,E,] | %144
!f! ([^B,,^D,]3- [B,,D,]!p![C,E,][D,F,]!<(! [E,^G,]2 [D,F,] [C,E,][=B,,D,][A,,C,])!<)! || %145
[M:4/4] ^B,, z[K:treble] (A2- A/(A/^G)C{/=E}D) | %146
!p! TB,3/2!<(! (A,/4B,/4) TA,3/2 (^G,/4A,/4) G,!<)! z/ (F/4^G/4) (A2- | %147
 A/A/"_dim."^GC{/=E}D B,A,^G,>E | %148
[M:12/8][K:bass]!p! [^D,A,^D]3-) [D,A,D][D,A,D][D,A,D]- [D,A,D]3- [D,A,D][D,A,D][D,A,D]- || %149
[K:Bb] [E,A,E]2 [E,A,E]- [E,A,E][E,A,E]!<(![E,-A,E-] [E,B,E] [E,B,E]2 .[B,E]2 z2/3!<)! x | %150
[M:12/8] z2/3 [CE]2 [CE]2 [CE]- [CE] [CE]2 [CE]2 ([CE] | %151
!p! .[F,_A,_CE]) [F,A,CE]2 [F,A,CE]2 [F,A,CE]- [F,A,CE] [F,A,CE]2 [F,A,CE]2 (3F,/_G,/A,/ | %152
[M:12/8] z2/3 [=CE]2 [CE]2 [CE]- [CE] [CE]2 [CE]2!<(! [F,CE]!<)! || %153
[M:4/4]!p! (3:2:2z [=E,=G,D]2 G,,>B,,"_cresc." (3.D,3/2G,/.B, (3.D.C.B, | %154
!<(! (G2!<)!!mf! (_G2-) GF"_dim."B,){/_D}._C | %155
!p! T_A,3/2 (G,/4A,/4)"_cresc." T_G,3/2 (F,/4G,/4) TF,3/2 (=E,/4F,/4)!mf! (_G2- | %156
!>(! GF!>)!!p!B,){/_D}._C!p! (_A,!mp!F!p!!<(!B,{/D}.C)!<)! | %157
!p! (_A,!mp!F!p!B,{/_D}._C"_cresc." _A,_G,F,(3A,/C/)E/ |[K:treble]!f! ([E_G]8 | =G4!f! =A4 | %160
!ff! !^![G,_D=GB]2) !^![=E,B,DG]2- [E,B,DG] (3z/!p!"^rall." [_F,=A,C=E]/[F,A,CE]/ [F,A,CE][F,A,CE] | %161
 (([=F,_A,C]3!p! [=E,=A,=E]) [E,A,E]2 [F,_A,F]2 || %162
[K:Db]!pp! [=G,C=G]/)!<(! [G,C=EG][G,CEG][G,CEG]/-(3[G,CEG]/[G,CEG]/!<)!([G,CEG]/!mf! [A,_C_EA]/)[A,CEA]!>(![A,CEA][A,CEA]/-(3[A,CEA]/[A,CEA]/[A,CEA]/-!>)! | %163
!mp!"_dim." [A,CEA]/[A,_CEA][A,CEA][A,CEA]/-(3[A,CEA]/[A,CEA]/[A,CEA]/- [A,CEA]/[A,CEA][A,CEA][A,C_FA][A,-C-EA-]/ || %164
[M:12/8]!pp! [A,C=FA] [A,_CFA]2 [A,CFA]2 [A,CFA] [A,CFA] [A,CFA]2 [A,CFA]2 ([A,CFA] | %165
[K:bass] [=D,A,B,]) [D,A,B,]2 [D,A,B,]2 [D,A,B,]2 [D,A,B,]2 [D,A,B,]2 ([D,A,B,] || %166
[M:4/4] [^C,=G,=B,]/)[C,G,B,][C,G,B,][C,G,B,]/-(3[C,G,B,]/[C,G,B,]/([C,G,B,]/!<(! [=D,A,_B,]/)[D,A,B,]!<)!!p!!>(![D,A,B,][D,A,B,]!>)!([D,A,B,]/ || %167
[M:12/8]!<(! [^C,=G,=B,]) [C,G,B,]2 [C,G,B,]2!<)!!p!!>(! ([C,G,B,] [=C,G,=C]) [C,G,C]2 [C,G,C]2!>)! [C,G,C]- | %168
 [C,G,C] [E,=G,C]2 [E,G,C]2 [E,G,C]2!<(! [E,G,C]2 [E,A,C]2 [E,-A,C-]!<)! | %169
!pp! [E,=A,C] [E,A,C]2 [E,A,C]2 [E,A,C]2 [E,A,C]2 [E,A,C]2!p! [E,A,C] | %170
 !tenuto!_A,6 !tenuto!_C3 x x !tenuto!C- |!p! !tenuto!E6"_dim." !tenuto!E,3 x2 !tenuto!_C, | %172
 !tenuto!_G,2 x [E,G,]2 [E,G,]2 [E,G,]2 [E,G,]2 [E,G,]- | %173
 [=A,,=C,E,G,] [A,,C,E,G,]2 [A,,C,E,G,]2 [A,,C,E,G,]2 [A,,C,E,G,]2 [A,,C,E,G,]2 [A,,C,E,G,]- | %174
 [A,,C,E,G,] [=A,,C,E,G,]2 [A,,C,E,G,]2 [C,E,G,]2 [C,E,G,]2 [C,E,G,]2 ([C,E,G,] | %175
 [B,,D,G,]) [B,,D,G,]2 [B,,D,G,]2 [B,,D,G,]2 [B,,G,]2 [B,,D,G,]2 ([B,,D,G,] | %176
 [=A,,C,]) [A,,C,]2 [A,,C,]2 [A,,C,]- [A,,C,] [A,,C,]2- [A,,C,] z z | z F,2- F,F,F,- F, F,2 z2 z | %178
[M:4/4] z2[K:treble]!p!!>(! (!>!_g6-!>)! |!pp! g2 f2) z4 | z8 | z2[K:bass]!p!!>(! (G6- | %182
 G2!>)! F2) z4 | z!ppp! ([G,G] [F,F]4) z2 | z ([G,G] [F,F]4) z2 ||[M:3/4] z2 [F,F]4- | [F,F]4 z2 |] %187
V:4
 z2 z z/ (3(F,,/4=G,,/4=A,,/4 [B,,,B,,]4-) | [B,,,B,,]2- [B,,,B,,] z [F,,,F,,]2- [F,,,F,,] z | %2
 [B,,,B,,]8- | [B,,,B,,]2 z2 z4 | z2 z z/ (3(F,,/4=G,,/4=A,,/4 ([B,,,B,,]4-) | %5
 [B,,,B,,]4 [=E,,,=E,,]4 | [_E,,,_E,,]6) D,2 | z2 [E,G,D]6 | (!///-!C,,4 E,4 | C,,4 [F,,,F,,]4-) | %10
 [F,,,F,,]2 z [F,F] (3z!<(! [F,F][F,F]- [F,F]/[F,F][F,F]/-!<)! | %11
!>(! [F,F][F,F] z [F,F]!>)! z [F,F] z [F,F]- | z2 z!<(! (F,,/4=G,,/4(3=A,,/4B,,/4C,/4!<)!!f! D,4) | %13
 C,3 B,, G,,3 F,, | E,8 | G,8 | G,4!f! z2!p! [G,CEB] z | D,3 C, B,,3 A,, | ([=G,,,=G,,]6 [F,,F,]2 | %19
 [=G,,,=G,,]4-) ([G,,,G,,]/A,,/4B,,/4C,/4D,/4E,/4=E,/4 ([F,,F,]2) | %20
 [_F,,_F,]3 [D,,D,] [_C,,_C,]3 [B,,,B,,]) | ([A,,A,]3 [=F,,=F,] [E,,E,]3 [=D,,=D,]) | %22
 [_C,=D,F,A,_C]2 ([F,,,F,,]4 [=G,,,=G,,]2 | [A,,,A,,]8) | %24
 [D,=E,=G,B,D]2 ([=G,,,=G,,]4 [=A,,,=A,,]2 | [B,,,B,,]7) x/ (6:4:6F,/8G,/8A,/8B,/8C/8D/8 | %26
 [E,G,B,E]2 ([=A,,,=A,,]4 [_A,,,_A,,]2 | ([G,,,G,,]4) [A,,A,]4 | %28
 ([_F,,_F,]3) [D,,D,] [_C,,_C,]3 [B,,,B,,]-) ||[K:Bb] [B,,,B,,]2 [_A,,,_A,,]4 [G,,,G,,]2- | %30
 [G,,,G,,]2 [^F,,,^F,,]6 | z !///-![F,,=B,,]3/2 D,3/2 !///-![F,,B,,]2 D,2 | %32
 z !///-![=E,,=B,,]3/2 D,3/2 !///-![E,,B,,]2 D,2 | (D,4 _D,4) | [G,,,G,,]8 | %35
 !///-![G,,B,,]2 D,2 !///-!_D,2 B,,2 | [B,,,B,,]8 | !///-![B,,_D,]2 F,2 !///-!=E,2 D,2 | %38
[K:treble] G8- | G8 ||[M:12/8][K:bass] x4 z !///-![^G,D]3/2 F3/2 !///-![G,D]2 F2 | %41
 x4 !///-![F,^G,]2 D2 !///-![D,F,]2 =B,2 | x11/3 [D,F,^G,] x x2 x4 | %43
 x10/3 z (D,/4=E,/4F,/4=G,/4 !>!^G,4) z F,/4=G,/4^G,/4A,/4 | %44
 x14/3 !>!A,,6- A,,(D,/4C,/4B,,/4A,,/4 | x4 (G,,8-) |[M:4/4] (=E,4 F,3 _G,) || (_E,,6) _D,2) | %48
 (E,,6 _D,2 | (!///-!C,,4) E,4 | !///-!C,,4 E,4 | [F,,C,]8) | z8 |!ped! z4 =G,4- | %54
 G,6 _A,2!ped-up! || !///-!!^![=B,,D,]4 F,4 | [=E,,=B,,]6- [E,,B,,] F,/4=E,/4D,/4C,/4 | %57
 !///-!A,2 [D,F,]2 !///-!^G, [D,F,] A,/[D,F,]/A,/[D,F,]/ | (F,4 D,3 =B,,-) | z4 z2 (D2 | %60
 _E,6 D,2) ||[K:Db] [E,,G,,B,,]2- [E,,G,,B,,] (B,,/4C,/4(3=D,/4E,/4F,/4 G,4) | F,3 E, _C,3 B,, | %63
 z4!<(! !>!_C4!<)! |!p! z4!<(! !>!_C4-!<)! | %65
 _C2 x!<(! (6:4:6B,,/4_C,/4D,/4E,/4F,/4G,/4!<)!!>(! (!>!A,4!>)! |!p! F,3 E, D,3 _C,) | %67
 (3z (.[A,=C].[A,C] (3.[A,C].[A,C].[A,C] .[A,C]4) | z4 (3(.=D.D.D D) z | %69
 (3z (.[A,=C].[A,C] (3.[A,C].[A,C].[A,C] .[A,C]4) | =D,4 (3.D,.D,.D, (3.D,.D,.D, | %71
 !///-!=A,,2 E,2 !///-!_A,,2 E,2 | %72
 z/4 A,/4E,/4A,/4 !///-!E,3/2 A,3/2 z/4 A,/4F,/4A,/4F,/4A,/4F,/4A,/4 !///-!_G, B, | %73
 z2 (_C2!p! _F,2 G,A,) || (B,,3 E,/4D,/4_C,/4B,,/4) =G,7/2 ((^G,,/4=A,,/4)) | %75
 (B,,3 E,/4D,/4_C,/4B,,/4) !>!=G,7/2 (^G,,/4=A,,/4) | B,,2 =A,,2 (^F,3 =F,) || %77
[K:Bb] (D,2 =B,2) F,2 z2 | (=B,,3 =E,/4D,/4C,/4B,,/4) =G,7/2 ((A,,/4_B,,/4)) | %79
 (=B,,3 =E,/4D,/4C,/4B,,/4) =G,7/2 (((A,,/4_B,,/4))) | (A,,2 ^G,,2 =G,,4-) | %81
 =A,2- (3A,A,A,- (3:2:2A, A,2 (3:2:2A,2 ((A, | _A,2-)) (3A,A,A,- (3:2:2A, A,2 (3:2:2A,2 (A, || %83
[M:12/8] D,) D,2- D,D,(D, F,) F,2 F,2 (A, | D,) D,2- D,D,(D, F,) F,2 F,2 (F, | [D,_A,]) x x2 x8 | %86
 ^F, F,2 F,2 F,- F, F,2 F,2 (F, | (G,6) ^F,) F,2 F,2 F, | %88
 _A,,4- A,,3/2 (G,,/4A,,/4) z ^F,2 F,2 F, | TG,,7- G,,7/2 [^F,,,^F,,]3/2 | %90
[M:4/4]{/=F,,,} =F,,2{/_A,,,} _A,,4{/=B,,,} (=B,,2- | B,,2{/D,,} D,4 D,2- | %92
 D,2 [_D,_A,]4- [D,A,][_A,,C,]) |[M:12/8] x4 [_A,,C,] (A,,-(3A,,/B,,/C,/_D,/4=D,/4E,/4F,/4 ^F,4-) | %94
 x7/3 F,2- (F,/4=F,/4E,/4D,/4C,/4B,,/4_A,,/4G,,/4 .[^F,,_A,]) z z2 | %95
 z4 z2 z!p! (^F,,/4^G,,/4A,,/4_B,,/4 | x10/3 !>!=B,,8) | z8 ||[M:4/4] z4 z2!pp! ([D,,D,]2 | %99
 [F,,,F,,]8-) | [F,,,F,,]8 | z4 z2!pp! ([D,,D,]2 | [F,,,F,,]8-) | [F,,,F,,]8- | (F,,4- F,,3 E,-) || %105
 E,.=D, _C4 (3D,/_A,/F,/(3E,/_G,/E,/ | (_C,2 B,,2 (T=A,,3/2) (^G,,/4A,,/4) .B,,2) | %107
 (T=A,,3/2 (^G,,/4A,,/4) B,,2) (TA,,3/2 (G,,/4A,,/4) TB,,3/2) (A,,/4B,,/4) | %108
 =B,,2 (TC,3/2 (B,,/4C,/4) B,,2) (TC,3/2 (B,,/4C,/4) | !///-![F,,G,,=B,,]4) D,4 | %110
 !///-![F,,G,,=B,,]3 D,3 (6:4:6D,/C,/B,,/A,,/_A,,/G,,/ | =E,8 | _G,,>G,,G,,C,, .G,,.C,,.G,,.C,, | %113
 (C,2 TB,,3/2 (A,,/4B,,/4) A,,3) (TB,,/ (A,,/4B,,/4) | %114
 A,,2) (TB,,3/2 (A,,/4B,,/4) A,,2) (TB,,3/2 (A,,/4B,,/4) ||[M:12/8] x4 (E,6) _A,,2 | %116
 x4 (_D,6) F,2) | x4 (E,4 _D,4) | x4 ([_C,E,]4 [_G,,_D,]4-) | x4 [G,,D,]4 [_G,,_D,]4- | %120
 x4 D,3/2E,/4F,/4 _G,2 (_D,-D,/4E,/4F,/4G,/4 (_A,2) | x4 _C2 F,2 _A,2 F,2) | %122
 x20/3 z2 TF,3/2 (3=E,/4F,/4_G,/4 (3.=G,.F,._E, (3.E,.D,.C, | %123
 x20/3 TD,7/2 (C,/4D,/4) (3C,D,E, (3D,E,F, | x4 (3E,F,G, (3^F,G,A, (3G,A,B,!<(! (3:2:2A,2 G,!<)! | %125
[M:4/4] (=A,,4 .[_C,,F,,_C,]2) !^![F,,,F,,]2- | [F,,,F,,]8- | %127
[M:12/8] x4 F,,2- F,, z!>(! (!>!=E,,4!>)! | x4 (F,,8) | x4 =E,,8) | x4 ._E,,2 =A,,,6 | %131
[M:4/4] A,,8- || A,, z (C,/D,/E,/=F,/ ^F,3) .G, | %133
[I:staff -1] G,[I:staff +1] G,2 G,- G,[=E,G,] =C,2- | (C,E,^F,G, E,)([C,F,]F,G, | %135
 E,)([C,^F,]F,G, E,D,^C,=C,) | D,C,B,,>A,, G,,2 ^F,,2 | B,,A,,G,,>=F,, =E,,G,,B,,D, | %138
[M:12/8] x4 =B,,4 T_B,,7/2 (A,,/4B,,/4) | x4 =B,,4 T_B,,7/2 (A,,/4B,,/4) || %140
[K:D] x13/3 (3:2:2z [D,F,]2 (3:2:2[D,F,]2 [D,F,]- (3:2:2[D,F,] [D,F,]2 (3:2:2[D,A,]2 [D,A,] | %141
[M:12/8] (3:2:2z3/2 [A,,F,]2 (3:2:2[A,,F,]2 [A,,F,]- (3:2:2[A,,F,] [A,,F,]2[I:staff -1] (3:2:2F,2[I:staff +1] ([D,F,] x11/3 || %142
[M:12/8] (3:2:2[^D,A,]) [D,A,]2 (3:2:2[D,A,]2 ([D,-A,] (3:2:2!>![D,F,]) z3 (3:2:2[D,F,]2 ([D,F,] x10/3 | %143
 (3:2:2[E,A,]) [E,A,]2 (3:2:2[E,A,]2 [^D,A,]- (3:2:2[D,A,] [^B,,D,]2- [B,,D,] (F,,/^G,,/) x4 | %144
 A,,2 ^G,,2 F,,4 x4 ||[M:4/4] ^G,, (3(C,/^D,/E,/ ^E,4-) E,.F, | %146
 z/ F,F,F,F,/- F,/F,/-(3F,/F,/F,/ [=B,,^E,](3(C,/=D,/=E,/ | %147
 (^E,3) F, D,C,^B,,C,/4=B,,/4A,,/4=G,,/4) | %148
[M:12/8] x4!>(! !>!C,>C,!>)! C,3/2 (A,,/4B,,/4!>(! !>!C,>)C,!>)! C,3/2 (A,,/4B,,/4) || %149
[K:Bb] x14/3!>(! !>!=B,,>B,,!>)! B,,3/2 (3(_G,,/4_A,,/4=A,,/4 (3(!>!_B,,)=B,,).C, _B,,2 | %150
[M:12/8] x11/3[I:staff -1] ._G,[I:staff +1]z/!p!F,/4F,/4 F, z/[I:staff -1] (3F,/4G,/4_A,/4 .G,[I:staff +1]z/F,/4F,/4 F, (F,,/4G,,/4A,,/4B,,/4 | %151
 x4 [C,,C,]>)C,,C,,F,,, C,,F,,,C,,F,,, | %152
[M:12/8] x11/3[I:staff -1] ._G,[I:staff +1]z/!p!F,/4F,/4 F, z/[I:staff -1] (3F,/4G,/4_A,/4 .G,[I:staff +1]z/F,/4F,/4 F, z/ (3(F,,/4=G,,/4!mp!=A,,/4 || %153
[M:4/4] [=G,,,_B,,]) z/ B,,,/ B,,,=E,,, B,,,E,,,B,,,E,,, | %154
 z2 (6:4:6(F,,/_G,,/_A,,/B,,/_C,/_D,/ (=D,3) E,) | %155
 !//-!_C, E, !//-!B,, E, =A,,3/2A,,/4B,,/4 _C,3/2(=C,/4_D,/4) | (D,3 E,) ._C,(_A,,D,.E,) | %157
 ._C,(_A,,D,.E,) C,B,,A,,_G,, | E, x x2 x4 | [F,,,F,,]8 | %160
 !^![=E,,,=E,,]2 !^![G,,,G,,]2 z2 [A,,,A,,] z |{/C,,} C,3 [^F,,C,] .[F,,C,]2 .[=F,,C,]2 || %162
[K:Db] [C,=E,]2 C,,/=D,,/4=E,,/4F,,/4=G,,/4=A,,/4B,,/4 z2 (E,2- | E,6 _F,2 || %164
[M:12/8] [_C,=F,]2-) [C,F,] z3/2 z6 x3/2 | F,,8 x4 ||[M:4/4] (T=E,,7/2 (^D,,/4E,,/4) F,,4) || %167
[M:12/8] (T=E,,2 ^D,,/4E,,/4^F,,/4=G,,/4=A,,/4=B,,/4C,/4=D,/4) (!>![_E,,_E,]4 x4 | %168
"_dim." [=D,,=D,]3!>(! [C,,C,] [A,,,A,,]3!>)! [=G,,,=G,,] x4 | [_G,,,_G,,]8) x4 | [F,,,F,,]8- x4 | %171
 [F,,,F,,]8- x4 | [F,,,F,,]8 x4 | z6 z3 (E,2 x | G,4 B,3 B, x4 | D4 D,3 B,, x4 | F,8) x4 | %177
 F,,6 C,,2 x4 |[M:4/4] (3:2:2z F,2- (3F,F,F,- (3:2:2F, F,2 z2 | z4 F,2- F, z | F,,6 (C,,2 | %181
 F,,8-) | F,,6 (C,,2 | F,,6) (C,,2 | F,,6) (C,,2 ||[M:3/4] F,,6-) | F,,4 C,,2 |] %187
V:5
 x8 | x8 | x8 | z2 [F,B,DF] z z [F,B,DF] z [F,B,DF]- | %4
 (3[F,B,DF]"_cresc."[F,B,DF][F,B,DF]- [F,B,DF]/[F,B,DF][F,B,DF]/- [F,B,DF]/[F,B,DF][F,B,DF][F,B,DF][F,B,DF]/- | %5
 [F,B,DF]/[F,B,DF]/-(3[F,B,DF]/[F,B,DF]/[F,B,DF]/- [F,B,DF]/[F,B,DF]/-(3[F,B,DF]/[F,B,DF]/[F,B,DF]/- [F,B,DF]/[F,B,DF]/-(3[F,B,DF]/[F,B,DF]/[F,B,DF]/- (3[F,B,DF]/[F,B,DF]/[F,B,DF]/-(3!>![F,B,DF]/[F,B,DF]/[F,B,DF]/ | %6
 x4 [E__Bd] z z2 | x8 | x8 | x8 | x8 | x8 | x8 | x8 | x8 | x8 | x8 | x8 | x8 | x8 | x8 | x8 | x8 | %23
 [=FAcd=f]/[FA_c=df][I:staff +1][A,_C=DF][A,CDF]/-(3[A,CDF]/[A,CDF]/[A,CDF]/-!<(! [A,CDF]/[A,CDF][A,CDF][A,=CE_G]/-(3[A,CEG]/[I:staff -1][_G_ceg]/[Gceg]/!<)! | %24
 x8 | %25
 [GBdeg]/[=GBd=e=g][I:staff +1][B,D=E=G][B,DEG]/-(3[B,DEG]/!<(![B,DEG]/[B,DEG]/- [B,DEG]/[B,DEG][B,DEG][B,=DFA]/-(3[B,DFA]/!<)![I:staff -1][A=dfa]/[Adfa]/ | %26
 x8 | x8 | x6 !////-![_CD] _F, || %29
[K:Bb] z/4 =B,/4^C/4B,/4 !///-!C3/2 B,3/2 z/4 B,/4[C=E]/4B,/4 !///-![CE]3/2 B,3/2 | %30
 [^C=E]/4 =E,/4=B,/4E,/4 !///-!B,3/2 E,3/2 z/4 E,/4B,/4E,/4B,/4E,/4B,/4E,/4 !///-!_B, E, | %31
 D2 A,2 z/4 A,/4D/4A,/4 !///-!D3/2 A,3/2 | %32
 =B,/4 F,/4A,/4F,/4 !///-!A,3/2 F,3/2 z/4 F,/4A,/4F,/4A,/4F,/4A,/4F,/4 !///-!^G, F, | %33
 ([B,D] [G,B,]2 [=E,G,] E,4) | x8 | ([=E,B,D] [G,B,]2 ([E,G,])[I:staff +1] =E,4) | x8 | %37
[I:staff -1] ([G,_DF] [B,D]2 ([G,B,])[I:staff +1] G,4) | x8 | x8 ||[M:12/8] x12 | x12 | %42
 x[I:staff -1][K:bass] x32/3 | x34/3 | %44
 x4/3 z2/3!>(! [=E,G,D]2 [E,G,D]2 [E,G,D]- [E,G,D][E,G,B,D][E,G,B,D]-!>)! [E,G,B,D]2 z2/3 | x12 | %46
[M:4/4] x8 || x8 | x8 | x8 | x8 | x8 | x8 | x4[K:treble] x4 | !////-!=G2 =e2 G x [=DF]2 || x8 | %56
[K:bass] x8 |[K:treble] x8 | C4 =B,3 A, | ^G,/G,G,G,/-(3G,/G,/G,/-!<(! G,/G,G,G,G,/-!<)! | %60
 !///-!_A,2 =F,2 !///-!A,3/2 F,3/2 A, ||[K:Db] x8 | x8 | x8 | x8 | x8 | x8 | x8 | [A,_C_G]8 | x8 | %70
 x8 | x8 | x8 | _C2 x6 || x4 !>!_F4 | x4 _F4 | x4 !///-!=D =B, x2 || %77
[K:Bb] [=B,D]2 ^G,2 x2 (3:2:2F2 D | x4 !>![^CF]4 | x4 !>![^CF]4 | %80
 (^G,2 (3A,)B,=B, (C2[I:staff +1] (3F,).G,_A, | x4[I:staff -1] !//!C4 | x4 !//!C4 || %83
[M:12/8] x6 C6 | x6 C6 | x12 | x6 !//!C6 | [_D_F]3- [DF]2 ([DF] !//!C6) | x6 !//!C6 | %89
 !>!E6 !>!G3 c2 e |[M:4/4] x6[K:bass] x2 | x8 | x8 |[M:12/8] x12 | x31/3 | x8 | x34/3 | x8 || %98
[M:4/4] x8 | x8 | x8 | x8 | x8 | x8 | x8 || %105
 (6:4:6[A,C]/_A,/_C/A,/C/A,/ (6:4:6D/D,/D/D,/D/D,/ (6:4:6D/A,/D/F/D/A,/ x2 | %106
 E,4 (F,/E,/)C/(F,/ _G,/)E,/G,/(E,/ | %107
 F,/)(E,/C/)(F,/ _G,/)E,/G,/(E,/ F,/)(E,/C/)(F,/ G,/)E,/G,/(E,/ | %108
 G,/)(=D,/D/)(G,/ _A,/)E,/A,/!<(!(E,/ G,/)(D,/D/)(G,/ A,/)E,/A,/!<)!E,/ | %109
 z2 z F,,,/F,,,/ F,,, z z2 |[K:treble] x8 | z2!f! [=E_dg] z z2 [B,_D]2 | %112
[K:bass] (6:4:6[B,C]/=E,/[B,C]/E,/[B,C]/E,/ (6:4:6B,/E,/B,/E,/B,/E,/ (6:4:6B,/E,/B,/E,/B,/E,/ (6:4:6B,/E,/B,/E,/B,/E,/ | %113
 F,/(_E,/C/)(F,/ _G,/)(E,/G,/)F,/ x4 | %114
 F,/(E,/C/)(F,/ _G,/)(E,/G,/)(E,/ F,/)(E,/C/)(F,/ G,/)(E,/G,) ||[M:12/8][K:treble] x12 | x12 | %117
 x12 | x12 | x12 | x12 | x12 | x4 [F,=D]2 x8/3 =A,4- A,2 | x4 F,6 _G,2 x8/3 | x12 | %125
[M:4/4][K:bass] x8 | [E,A,]8 |[M:12/8] x12 | x12 | x12 | x12 |[M:4/4] x8 || %132
 [^F,CE]2[K:treble] [CE]4 [A,C]B, | x6 (6:4:6_E/^F,/E/F,/E/F,/ | %134
 EA/(C/ D/)(A,/E/)(B,/ C/)(G,/B/)(E/ C/)(A,/E/)(B,/ | %135
 C/)(G,/B/)(E/ C/)(A,/E/)(B,/ C/)(G,/B,/)(G,/ A,/)(G,/E/)G,/ | ^F,4 A,2 D,2 | [B,D]8 | %138
[M:12/8] x12 | x12 ||[K:D] x4 [A,DF] x22/3 |[M:12/8] [A,DF] x11 ||[M:12/8] C6 ^B,3- B,2 C | %143
 x3 C3[K:bass] x6 | x12 ||[M:4/4] x2[K:treble] !//-!=D B, D^G/B,/ C/^G,/D/A,/ | x6 !//-!=D B, | %147
 D^G/(B,/ C/)(^G,/D/)(A,/ B,/)(F,/A,/)(F,/ G,/)(F,/G,/)E/ |[M:12/8][K:bass] x12 || %149
[K:Bb] x29/3 .E,._G,.C |[M:12/8] x35/3 | x12 |[M:12/8] x35/3 ||[M:4/4] !>!B,2 x6 | %154
 x2 [E,_A,_C]2- (3[E,A,C]/C/A,/(3F/C/A,/ (3B,/A,/F,/C/_G,/ | x6 !//-!_E, _A, | %156
 (3_C/_A,/C/(3F/C/A,/ (3B,/A,/!<(!F,/C/!<)!_G,/ [E,A,] (3E,/C/E,/ (3B,/A,/F,/C/G,/ | %157
 [E,_A,] (3E,/_C/E,/ (3B,/A,/F,/C/_G,/ (6:4:6A,/E,/A,/G,/E,/G,/ (3F,/E,/F,/ x |[K:treble] _C6 B,2 | %159
 =A,4 _G,2 F,2 | x8 | x8 ||[K:Db] x8 | x8 ||[M:12/8] x12 |[K:bass] x12 ||[M:4/4] x8 || %167
[M:12/8] x12 | x12 | x11 E, | z [E,_C]2 [E,C]2 [E,A,]2 [E,A,]2 [E,A,]2 [E,A,]- | %171
 [E,A,_C] [_C,E,A,]2 [C,E,A,]2 [C,A,]2 [C,A,]2 [C,E,A,]2 [C,-E,A,] | [C,E,] [_C,-E,]2 C,6 B,,3 | %173
 x12 | x12 | F,,8 x4 | x12 | x12 |[M:4/4] x2[K:treble] [=DA_c]6 | [E=A=c]4 x4 | x8 | %181
 x2[K:bass] ([=D,A,_C]6 | [E,=A,=C]6) x2 | x8 | x8 ||[M:3/4] x6 | x6 |] %187
V:6
 x8 | x8 | x8 | x8 | x8 | x8 | x8 | E,,6 D,2 | x8 | x8 | x8 | x8 | x8 | x8 | (E,,6 D,2 | %15
 E,,6-) D,2 | (E,,3 (6:4:6F,,/4G,,/4A,,/4B,,/4C,/4D,/4 E,4) | x8 | x8 | x8 | x8 | x8 | x8 | x8 | %24
 x8 | x8 | x8 | x8 | x8 ||[K:Bb] x8 | x8 | ([=F,,,=F,,]8 | [=E,,,=E,,]8) | %33
 z/4 _B,,/4=G,,/4B,,/4 !///-!G,,3/2 B,,3/2 z/4 B,,/4G,,/4B,,/4 !///-!G,,3/2 B,,3/2 | x8 | x4 G,,4 | %36
 x8 | x4 B,,4 |[K:treble] x8 | x8 ||[M:12/8][K:bass] x4 [A,,F,=B,]8 | x12 | x11/3 !>!A,,8 | %43
 x10/3 !>!A,,8 | x38/3 | x12 |[M:4/4] G,,2!<(! F,,4 =E,,2!<)! || x8 | x8 | x8 | x8 | x8 | x8 | %53
 B,,8- | B,,8 || x8 | x8 | =B,,6- B,,A,,/4G,,/4F,,/4=E,,/4 | D,,6- D,, z | [=B,,,B,,]8 | %60
 (_C,4 B,,,4) ||[K:Db] x8 | x8 | (A,,6 G,2) | (A,,6 G,2) | A,,3 x5 | x8 | (B,,6 A,2 | [B,,=D,]8) | %69
 B,,6- A,2 | B,,8 | x8 | (F,,4 _G,,4 | A,,4 B,,4) || x4 T=A,,4 | x4 T=A,,4 | x4 ^G,,4 || %77
[K:Bb] [=F,,D,]4 D,,4 | x4 T_B,,4 | x4 T_B,,4 | x8 | (G,,2 ^F,,6-) | (F,,2 =F,,6-) || %83
[M:12/8] F,,3 z3 (D,,6 | F,,3) z3 (D,,6 | F,,6) T_A,,4- A,,3/2 (G,,/4A,,/4) | =A,,6- A,,6 | %87
 (_A,,4- A,,3/2 (G,,/4A,,/4) =A,,6) | x6 =A,,6 | G,,,7- G,,,7/2 x3/2 |[M:4/4] x8 | x8 | x8 | %93
[M:12/8] x12 | x31/3 | x8 | x34/3 | x8 ||[M:4/4] x8 | x8 | x8 | x8 | x8 | x8 | F,,,8 || F,,8 | %106
 F,,8 | F,,4 F,,2 F,,2 | F,,8 | x8 | x6 ([F,,G,,=B,,] x | F,,) z TF,,4- F,,3/2 (=E,,/4F,,/4) | x8 | %113
 F,,8- | F,,2 F,,4 F,,2 ||[M:12/8] x4 _D,,8- | x4 D,,8 | x4 (_C,,4 _G,,,4) | x12 | x12 | %120
 x4 G,,2 (_G,,4 _C,2 | x4 _A,,2 _C,2 F,,2 [A,,C,]2 | x20/3 [B,,,B,,]4) B,,4 | %123
 x20/3 B,,,4 B,,2 B,,2 | x4 B,,2 B,,4 B,,2 |[M:4/4] x8 | x8 |[M:12/8] x4 F,,, x7 | x12 | x12 | %130
 x12 |[M:4/4] x8 || x2 A,,, z A,,4- | A,,6 A,,,2 | A,,8- | A,,8 | x8 | x8 |[M:12/8] x12 | x12 || %140
[K:D] x13/3 (A,,6 F,,2 |[M:12/8] D,,6 A,,,2 x4 ||[M:12/8] (F,,4) A,,4) x4 | F,,6- F,, x5 | x12 || %145
[M:4/4] x2 ^G,,6- | G,,6 ^G,,2- | G,,6- G,, x |[M:12/8] x4 F,,8 ||[K:Bb] x14/3 _G,,6 G,,2 | %150
[M:12/8] x11/3 =A,,8 | x12 |[M:12/8] x11/3 =A,,6- A,, x ||[M:4/4] x8 | x2 F,,, x F,,4- | %155
 F,,6 F,,, x | F,,4- F,, F,,3- | F,, F,,3- F,,4 | F,,8- | x8 | x8 | x8 ||[K:Db] x4 (_C,4 | %163
 B,,7/2 A,,/ _F,,3 E,, ||[M:12/8] =D,,8) x4 | x12 ||[M:4/4] x8 ||[M:12/8] x12 | x12 | x12 | x12 | %171
 x12 | x12 | [F,,,F,,]8- x4 | [F,,,F,,]8 x4 | x12 | F,,6 C,,2 x4 | x12 |[M:4/4] F,,8- | F,,6 C,,2 | %180
 x8 | x8 | x8 | x8 | x8 ||[M:3/4] x6 | x6 |] %187
V:7
 x8 | x8 | x8 | x8 | x8 | x8 | x8 | x8 | x8 | x8 | x8 | x8 | x8 | x8 | x8 | x8 | x8 | x8 | x8 | %19
 x8 | x8 | x8 | x8 | x8 | x8 | x8 | x8 | x8 | x8 ||[K:Bb] x8 | x8 | x8 | x8 | =E,,8 | x8 | x8 | %36
 x8 | x8 |[K:treble] x8 | x8 ||[M:12/8][K:bass] x12 | x12 | x35/3 | x34/3 | x38/3 | x12 | %46
[M:4/4] x8 || x8 | x8 | x8 | x8 | x8 | x8 | x8 | x8 || x8 | x8 | x8 | x8 | x8 | x8 ||[K:Db] x8 | %62
 x8 | x8 | x8 | x8 | x8 | x8 | x8 | x8 | x8 | x8 | x8 | x8 || x8 | x8 | x8 ||[K:Bb] x8 | x8 | x8 | %80
 x8 | x8 | x8 ||[M:12/8] x12 | x12 | x12 | x12 | x12 | x12 | x12 |[M:4/4] x8 | x8 | x8 | %93
[M:12/8] x12 | x31/3 | x8 | x34/3 | x8 ||[M:4/4] x8 | x8 | x8 | x8 | x8 | x8 | x8 || x6 D,E, | x8 | %107
 x8 | x8 | x8 | x8 | x8 | x8 | x8 | x8 ||[M:12/8] x12 | x12 | x12 | x12 | x12 | x12 | x12 | x44/3 | %123
 x44/3 | x12 |[M:4/4] x8 | x8 |[M:12/8] x12 | x12 | x12 | x12 |[M:4/4] x8 || x8 | E,2 D,2 ^C,2 x2 | %134
 x8 | x8 | x8 | x8 |[M:12/8] x12 | x12 ||[K:D] x37/3 |[M:12/8] x12 ||[M:12/8] x12 | x12 | x12 || %145
[M:4/4] x8 | F,2 C,2 ^B,,2 x2 | x8 |[M:12/8] x12 ||[K:Bb] x38/3 |[M:12/8] x35/3 | x12 | %152
[M:12/8] x35/3 ||[M:4/4] x8 | x8 | x8 | x8 | x8 | x8 | x8 | x8 | x8 ||[K:Db] x8 | x8 || %164
[M:12/8] x12 | x12 ||[M:4/4] x8 ||[M:12/8] x12 | x12 | x12 | x12 | x12 | x12 | x12 | x12 | x12 | %176
 x12 | x12 |[M:4/4] x8 | x8 | x8 | x8 | x8 | x8 | x8 ||[M:3/4] x6 | x6 |] %187
V:8
 x8 | x8 | x8 | x8 | x8 | x8 | x8 | x8 | x8 | x8 | x8 | x8 | x8 | x8 | x8 | x8 | x8 | x8 | x8 | %19
 x8 | x8 | x8 | x8 | x8 | x8 | x8 | x8 | x8 | x8 ||[K:Bb] x8 | x8 | x8 | x8 | x8 | x8 | x8 | x8 | %37
 x8 |[K:treble] x8 | x8 ||[M:12/8][K:bass] x12 | x12 | x35/3 | x34/3 | x38/3 | x12 |[M:4/4] x8 || %47
 x8 | x8 | x8 | x8 | x8 | x8 | x8 | x8 || x8 | x8 | x8 | x8 | x8 | x8 ||[K:Db] x8 | x8 | x8 | x8 | %65
 x8 | x8 | x8 | x8 | x8 | x8 | x8 | x8 | x8 || x8 | x8 | x8 ||[K:Bb] x8 | x8 | x8 | x8 | x8 | x8 || %83
[M:12/8] x12 | x12 | x12 | x12 | x12 | x12 | x12 |[M:4/4] x8 | x8 | x8 |[M:12/8] x12 | x31/3 | x8 | %96
 x34/3 | x8 ||[M:4/4] x8 | x8 | x8 | x8 | x8 | x8 | x8 || x8 | x8 | x8 | x8 | x8 | x8 | x8 | x8 | %113
 x8 | x8 ||[M:12/8] x12 | x12 | x12 | x12 | x12 | x12 | x12 | x44/3 | x44/3 | x12 |[M:4/4] x8 | %126
 x8 |[M:12/8] x12 | x12 | x12 | x12 |[M:4/4] x8 || x8 | x8 | x8 | x8 | x8 | x8 |[M:12/8] x12 | %139
 x12 ||[K:D] x37/3 |[M:12/8] x12 ||[M:12/8] x12 | x12 | x12 ||[M:4/4] x8 | x8 | x8 |[M:12/8] x12 || %149
[K:Bb] x38/3 |[M:12/8] x35/3 | x12 |[M:12/8] x35/3 ||[M:4/4] x8 | x8 | x8 | x8 | x7 E,- | x8 | x8 | %160
 x8 | x8 ||[K:Db] x8 | x8 ||[M:12/8] x12 | x12 ||[M:4/4] x8 ||[M:12/8] x12 | x12 | x12 | x12 | %171
 x12 | x12 | x12 | x12 | x12 | x12 | x12 |[M:4/4] x8 | x8 | x8 | x8 | x8 | x8 | x8 ||[M:3/4] x6 | %186
 x6 |] %187
V:9
 x8 | x8 | x8 | x8 | x8 | x8 | x8 | x8 | x8 | x8 | x8 | x8 | x8 | x8 | x8 | x8 | x8 | x8 | x8 | %19
 x8 | x8 | x8 | x8 | x8 | x8 | x8 | x8 | x8 | x8 ||[K:Bb] x8 | x8 | x8 | x8 | x8 | x8 | x8 | x8 | %37
 x8 | x8 | x8 ||[M:12/8] x12 | x12 | x[K:bass] x32/3 | x34/3 | x38/3 | x12 |[M:4/4] x8 || x8 | x8 | %49
 x8 | x8 | x8 | x8 | x4[K:treble] x4 | x8 || x8 |[K:bass] x8 |[K:treble] x8 | x8 | x8 | x8 || %61
[K:Db] x8 | x8 | x8 | x8 | x8 | x8 | x8 | x8 | x8 | x8 | x8 | x8 | x8 || x8 | x8 | x8 ||[K:Bb] x8 | %78
 x8 | x8 | x8 | x8 | x8 ||[M:12/8] x12 | x12 | x12 | x12 | x12 | x12 | x12 |[M:4/4] x6[K:bass] x2 | %91
 x8 | x8 |[M:12/8] x12 | x31/3 | x8 | x34/3 | x8 ||[M:4/4] x8 | x8 | x8 | x8 | x8 | x8 | x8 || x8 | %106
 x8 | x8 | x8 | x8 |[K:treble] x8 | x8 |[K:bass] x8 | x8 | x8 ||[M:12/8][K:treble] x12 | x12 | %117
 x12 | x12 | x12 | x12 | x12 | x44/3 | x44/3 | x12 |[M:4/4][K:bass] x8 | x8 |[M:12/8] x12 | x12 | %129
 x12 | x12 |[M:4/4] x8 || x[K:treble] x7 | x8 | x8 | x8 | x8 | x8 |[M:12/8] x12 | x12 || %140
[K:D] x37/3 |[M:12/8] x12 ||[M:12/8] x12 | x6[K:bass] x6 | x12 ||[M:4/4] x2[K:treble] x6 | x8 | %147
 x8 |[M:12/8][K:bass] x12 ||[K:Bb] x38/3 |[M:12/8] x35/3 | x12 |[M:12/8] x35/3 ||[M:4/4] x8 | x8 | %155
 x8 | x8 | x8 |[K:treble] x8 | [=CE]8 | x8 | x8 ||[K:Db] x8 | x8 ||[M:12/8] x12 |[K:bass] x12 || %166
[M:4/4] x8 ||[M:12/8] x12 | x12 | x12 | x12 | x12 | x12 | x12 | x12 | x12 | x12 | x12 | %178
[M:4/4] x2[K:treble] x6 | x8 | x8 | x2[K:bass] x6 | x8 | x8 | x8 ||[M:3/4] x6 | x6 |] %187

